X:1
T:Miss Gordon of Gight  [Dm]
T:Easter Morn
C:Isaac Cooper 1783
B:Isaac Cooper "Thirty New Strathspey Reels For The Violin or Harpsichord" 1783
O:England
L:1/8
M:4/4
Z:Alf Warnock - alf0@rogers.com
%Q:1/4=108
K:Dm
|: "Dm"A,D FA da fd | "C"c/d/e cA GE CE | "Dm"DF AF "C"EG cA | "Am"GE CE "Dm"FD D2 :|
[| "F"fa c'a "Gm"ba gf | "Am"ef ga "C"ge ce | "F"fa c'a "Gm"ba gf | "C"ec ge "Dm"d4 |
 | "F"fa c'a "Gm"ba gf | "Am"ef ga "C"ge cg | "F"ag fe "Bb"de fd | "Am"cA GE "Dm"FD DC |]
